X:1
T:Se questa valle
T:anonymous
T:Source  : Recueils de musique ancienne---Paris---Pacini---1843. Editor : André Vierendeels (25/06/17).
T:Notes : Original clefs : C1, C3, C4, F4 Editorial accidentals above the staff "Lodi Spirituali da diversi autori. nr 51---Roma---1599/1604."
T:Se questa valle
T:©
T:©
C:anonymous
Z:©
%%score [ 1 2 3 4 ]
L:1/8
Q:1/4=120
M:4/4
K:F
V:1 treble nm="Soprano" snm="S"
V:2 treble nm="Alto" snm="A"
V:3 treble-8 nm="Tenor" snm="T"
V:4 bass nm="Bass" snm="B"
V:1
 c4 B2 A2 | A4 A4 | B2 B2 A2 G2 | G4 G4 | G4 G2 G2 | G6 G2 | F2 E2 F2 G2 | A4 A4 | c4 B2 A2 | %9
w: Se que- sta|val- le|di mi- se- ria|pie- na,|par co- si'a-|me- na'e|va- ga'hor che sia|quel- la|be- a- ta|
 A4 A4 | B2 B2 A2 A2 | G4 G4 | F4 F2 F2 | G4 A4 | B4 A2 A2 | G4 F4 | A4 B2 A2 | c4 c4 | %18
w: bel- la|re- gi- on di|pa- ce,|pa- tria ve-|ra- ce,|pa- tria ve-|ra- ce,|be- a- ta|bel- la|
 A2 c2 d2 d2 | G4 G4 | c2 F2 F2 E2 | F4 A4 | c2 F2 F2 E2 | F8 |] %24
w: re- gi- on di|pa- ce,|al- le- lu- i-|a, _|al- le lu- i-|a.|
V:2
 A4 F2 F2 | E4 F4 | F2 G2 F2 D2 | E4 E4 | _E4 E2 E2 | D6 D2 | D2 ^C2 D2 E2 | F4 F4 | A4 F2 F2 | %9
w: Se que- sta|val- le|di mi- se- ria|pie- na,|par co- si'a-|me- na'e|va- ga'hor che sia|quel- la|be- a- ta|
 E4 F4 | F2 G2 F2 F2 | E4 E4 | F4 F2 F2 | F4 F4 | G4 F2 F2 | F2 E2 F4 | C4 D2 D2 | E4 E4 | %18
w: bel- la|re- gi- on di|pa- ce,|pa- tria ve-|ra- ce,|pa- tria ve-|ra- * ce,|be- a- ta|bel- la|
 F2 G2 F2 F2 | E4 C4 | C2 B,2 C2 C2 | C4 C4 | C2 B,2 C2 C2 | A,8 |] %24
w: re- gi- on di|pa- ce,|al- le lu- i-|a, _|al- le- lu- i-|a.|
V:3
 c4 d2 d2 | ^c4 =c4 | d2 c2 c2 B2 | c4 c4 | c4 c2 c2 | =B6 B2 | A2 A2 A2 c2 | c4 c4 | c4 d2 d2 | %9
w: Se que- sta|val- le|di mi- se- ria|pie- na,|par co- si'a-|me- na'e|va- ga'hor che sia|quel- la|be- a- ta|
 ^c4 =c4 | d2 c2 c2 d2 | G4 G4 | B4 A2 A2 | c4 c4 | d4 c2 d2 | G4 A4 | F4 F2 F2 | G4 G4 | %18
w: bel- la|re- gi- on di|pa- ce,|pa- tria ve-|ra- ce,|pa- tria ve-|ra- ce,|be- a- ta|bel- la|
 A2 c2 c2 =B2 | c4 E4 | F2 GF G2 G2 | A4 F4 | F2 GF G2 G2 | F8 |] %24
w: re- gi- on di|pa- ce,|al- le- * lu- i-|a, _|al- le- * lu- i-|a.|
V:4
 F,4 B,,2 D,2 | A,4 F,4 | D,2 E,2 F,2 G,2 | C,4 C,4 | C,4 C,2 C,2 | G,,6 A,,2 | D,2 A,,2 D,2 C,2 | %7
w: Se que- sta|val- le|di mi- se- ria|pie- na,|par co- si'a-|me- na'e|va- ga- hor sia|
 F,4 F,4 | F,4 B,,2 D,2 | A,4 F,4 | D,2 E,2 F,2 B,,2 | C,4 C,4 | D,4 D,2 D,2 | C,4 A,,4 | %14
w: quel- la|be- a- ta|bel- la|re- gi- on di|pa- ce,|pa- tria ve-|ra- ce,|
 G,,4 A,,2 B,,2 | C,4 F,,4 | F,2 E,2 D,2 D,2 | C,4 C,4 | F,2 E,2 D,2 D,2 | C,6 B,,2 | %20
w: pa- tria ve-|ra- ce,|be- * a- ta|bel- la|re- gi- on di|pa- ce,|
 A,,2 D,2 C,2 C,2 | F,,4 F,,4 | A,,2 D,2 C,2 C,2 | F,,8 |] %24
w: al- le- lu- i-|a, al|le- * lu- i-|a.|

